public/icon/svg/Tmdb.svg

<svg xmlns="http://www.w3.org/2000/svg" xmlns:xlink="http://www.w3.org/1999/xlink" width="1024" height="1024"><defs><path id="a" d="M0 0h1024v1024H0z"/><path id="c" d="M462 394.2V537h52.2c23.2 0 40.6-6.4 52.6-19.2 11.4-12.2 17.2-29.6 17.2-52.2 0-22.8-5.8-40.2-17.2-52.2-12-12.8-29.4-19.2-52.6-19.2zm23.4 20h24.4c17.8 0 30.8 4 39 12.2 8 8 12 21.2 12 39.2 0 17.6-4 30.6-12 39-8.2 8.2-21.2 12.4-39 12.4h-24.4zm150.6-20V537h65.6c15.2 0 27.2-2.8 35.6-8.4 9.8-6.8 14.8-17.4 14.8-31.8 0-9.6-2.4-17.4-7-23-4.8-5.8-11.8-9.6-21.2-11.4 7.2-2.8 12.6-6.6 16.4-11.8 3.8-5.6 5.8-12.4 5.8-20.4 0-10.8-3.8-19.4-11.2-25.8-8-6.8-19.2-10.2-33.4-10.2zm23.4 19.2h36.2c9.6 0 16.4 1.6 20.8 4.8 4 3 6.2 8 6.2 14.8 0 7.4-2.2 12.8-6.2 16.2-4.2 3.2-11.2 5-21.2 5h-35.8zm0 60h39.4c10.4 0 18 1.8 22.8 5.4 4.6 3.6 7 9.4 7 17.6 0 8-3.2 13.6-9.6 17.2-5 2.8-12 4.2-20.8 4.2h-38.8zM372 198.2 422.8 341H451l50.8-142.8h-25.4l-39.2 116.4h-.6l-39.2-116.4zm184.8 0V341h23.4V198.2zm86.4 0V341h106.4v-20h-83v-43.2h74.8v-20h-74.8v-39.6h79.6v-20zm-633.2-2V339h23.4v-98.4h.8l42 98.4h20.2l42-98.4h.8V339h23.4V196.2h-27.4l-48.4 112H86l-48.6-112zM0 .2v20h46.8V143h23.4V20.2H117V.2zm160 0V143h23.4V79.8h72.4V143h23.4V.2h-23.4v59.6h-72.4V.2zm166.2 0V143h106.4v-20h-83V79.8h74.8v-20h-74.8V20.2h79.6V.2zm2.483 395.8C387.424 396 414 443 414 467s-19.582 72-85.316 72H95.12c-47.552-1-81.12-31-81.12-71s27.973-71 81.12-72h233.564M276 344c41.421 0 75-33.579 75-75s-33.579-75-75-75-75 33.579-75 75 33.579 75 75 75M689 0c42 0 61.001 47 61.001 71S736 143 689 143H522c-34-1-58.001-31-58.001-71S484 1 522 0z"/><linearGradient id="d" x1="0%" x2="100%" y1="50%" y2="50%"><stop offset="0%" stop-color="#8DCDA8"/><stop offset="48.232%" stop-color="#8DCDA8"/><stop offset="100%" stop-color="#05B3E1"/></linearGradient></defs><g fill="none" fill-rule="evenodd"><mask id="b" fill="#fff"><use xlink:href="#a"/></mask><use xlink:href="#a" fill="#032541"/><g mask="url(#b)"><g transform="translate(160 249)"><mask id="e" fill="#fff"><use xlink:href="#c"/></mask><use xlink:href="#c" fill="#2F2E2E" fill-rule="nonzero"/><path fill="url(#d)" d="M-158-250H866V774H-158z" mask="url(#e)"/></g></g></g></svg>

<?xml version="1.0" encoding="UTF-8"?>
<svg width="1024px" height="1024px" viewBox="0 0 1024 1024" version="1.1" xmlns="http://www.w3.org/2000/svg" xmlns:xlink="http://www.w3.org/1999/xlink">
    <title>Tmdb</title>
    <defs>
        <rect id="path-1" x="0" y="0" width="1024" height="1024"></rect>
        <path d="M462,394.2 L462,537 L514.2,537 C537.4,537 554.8,530.6 566.8,517.8 C578.2,505.6 584,488.2 584,465.6 C584,442.8 578.2,425.4 566.8,413.4 C554.8,400.6 537.4,394.2 514.2,394.2 L462,394.2 Z M485.4,414.2 L509.8,414.2 C527.6,414.2 540.6,418.2 548.8,426.4 C556.8,434.4 560.8,447.6 560.8,465.6 C560.8,483.2 556.8,496.2 548.8,504.6 C540.6,512.8 527.6,517 509.8,517 L485.4,517 L485.4,414.2 Z M636,394.2 L636,537 L701.6,537 C716.8,537 728.8,534.2 737.2,528.6 C747,521.8 752,511.2 752,496.8 C752,487.2 749.6,479.4 745,473.8 C740.2,468 733.2,464.2 723.8,462.4 C731,459.6 736.4,455.8 740.2,450.6 C744,445 746,438.2 746,430.2 C746,419.4 742.2,410.8 734.8,404.4 C726.8,397.6 715.6,394.2 701.4,394.2 L636,394.2 Z M659.4,413.4 L695.6,413.4 C705.2,413.4 712,415 716.4,418.2 C720.4,421.2 722.6,426.2 722.6,433 C722.6,440.4 720.4,445.8 716.4,449.2 C712.2,452.4 705.2,454.2 695.2,454.2 L659.4,454.2 L659.4,413.4 Z M659.4,473.4 L698.8,473.4 C709.2,473.4 716.8,475.2 721.6,478.8 C726.2,482.4 728.6,488.2 728.6,496.4 C728.6,504.4 725.4,510 719,513.6 C714,516.4 707,517.8 698.2,517.8 L659.4,517.8 L659.4,473.4 Z M372,198.2 L422.8,341 L451,341 L501.8,198.2 L476.4,198.2 L437.2,314.6 L436.6,314.6 L397.4,198.2 L372,198.2 Z M556.8,198.2 L556.8,341 L580.2,341 L580.2,198.2 L556.8,198.2 Z M643.2,198.2 L643.2,341 L749.6,341 L749.6,321 L666.6,321 L666.6,277.8 L741.4,277.8 L741.4,257.8 L666.6,257.8 L666.6,218.2 L746.2,218.2 L746.2,198.2 L643.2,198.2 Z M10,196.2 L10,339 L33.4,339 L33.4,240.6 L34.2,240.6 L76.2,339 L96.4,339 L138.4,240.6 L139.2,240.6 L139.2,339 L162.6,339 L162.6,196.2 L135.2,196.2 L86.8,308.2 L86,308.2 L37.4,196.2 L10,196.2 Z M0,0.2 L0,20.2 L46.8,20.2 L46.8,143 L70.2,143 L70.2,20.2 L117,20.2 L117,0.2 L0,0.2 Z M160,0.2 L160,143 L183.4,143 L183.4,79.8 L255.8,79.8 L255.8,143 L279.2,143 L279.2,0.2 L255.8,0.2 L255.8,59.8 L183.4,59.8 L183.4,0.2 L160,0.2 Z M326.2,0.2 L326.2,143 L432.6,143 L432.6,123 L349.6,123 L349.6,79.8 L424.4,79.8 L424.4,59.8 L349.6,59.8 L349.6,20.2 L429.2,20.2 L429.2,0.2 L326.2,0.2 Z M328.683486,396 C387.424323,396 413.998925,443 413.998925,467 C413.998925,491 394.41728,539 328.683486,539 C215.397585,539 215.397585,539 95.1187277,539 C47.5666213,538 13.998925,508 13.998925,468 C13.998925,428 41.9722558,397 95.1187277,396 C211.201811,396 211.201811,396 328.683486,396 Z M276,344 C317.421356,344 351,310.421356 351,269 C351,227.578644 317.421356,194 276,194 C234.578644,194 201,227.578644 201,269 C201,310.421356 234.578644,344 276,344 Z M689,0 C731,0 750.000977,47 750.000977,71 C750.000977,95 736,143 689,143 C608,143 608,143 522,143 C488,142 463.998925,112 463.998925,72 C463.998925,32 484,1 522,0 C605,0 605,0 689,0 Z" id="path-3"></path>
        <linearGradient x1="0%" y1="50%" x2="100%" y2="50%" id="linearGradient-5">
            <stop stop-color="#8DCDA8" offset="0%"></stop>
            <stop stop-color="#8DCDA8" offset="48.2315453%"></stop>
            <stop stop-color="#05B3E1" offset="100%"></stop>
        </linearGradient>
    </defs>
    <g id="ICON-新版方图标" stroke="none" stroke-width="1" fill="none" fill-rule="evenodd">
        <g id="Tmdb">
            <mask id="mask-2" fill="white">
                <use xlink:href="#path-1"></use>
            </mask>
            <use id="蒙版背景" fill="#032541" xlink:href="#path-1"></use>
            <g id="编组" mask="url(#mask-2)">
                <g transform="translate(160, 249)">
                    <mask id="mask-4" fill="white">
                        <use xlink:href="#path-3"></use>
                    </mask>
                    <use id="形状结合" stroke="none" fill="#2F2E2E" fill-rule="nonzero" xlink:href="#path-3"></use>
                    <rect id="渐变色" stroke="none" fill="url(#linearGradient-5)" fill-rule="evenodd" mask="url(#mask-4)" x="-158" y="-250" width="1024" height="1024"></rect>
                </g>
            </g>
        </g>
    </g>
</svg>
